!!!OTL: Cha yang ge
!!!ARE: Asia, China, Shanxi Zhenba
!! I, 73
!!!SCT: C1407
!!!YEM: Copyright 1995, estate of Helmut Schaffrath.
**kern
*ICvox
*Ivox
*M2/4
*k[f#]
*G:
{16a
16a
16a
16a
8e
8e
=1
8.dd
16b
8.dd
16b
=2
8a
16b
16a
4g}
=3
{8g
8b
8a
16b
16a
=4
8g
16a
16b
4g}
=5
{16a
16a
16a
16a
8e
8e
=6
16a
16a
32a
32a
32a
32a
16e
16e
32e
32e
32e
32e
=7
16a
16a
32a
32a
32a
32a
8g
16e
16g
=8
2a}
=9
{8.a
16b
8b
16b
16a
=10
8g
16a
16b
4g}
==
!!!AGN: Xiaodiao
!!!ONB: ESAC (Essen Associative Code) Database: HUANG
!!!AMT: simple duple
!!!AIN: vox
!!!EED: Helmut Schaffrath
!!!EEV: 1.0
*-
